X:127
T:Scotch Waltz
O:No 127 Wm Clarke MS  Feltwell, Norfolk
I:abc2nwc
M:3/4
L:1/8
K:F
A3/2B/2|c2f/2a3/2 g/2b3/2|a3/2g/2 fd cA|Bc de fA|A2G2A3/2B/2|
c2f/2a3/2 g/2b3/2|a3/2g/2 fd cA|Bd gb e3/2g/2|{g}f4:|
|:c'3/2c'/2|c'3b ag|f3g ac'|d'3c' af|a2g2f3/2d/2|
c2f/2a3/2 g/2b3/2|a3/2g/2 f3/2d/2 c3/2A/2|c/2f3/2 A/2c3/2 G/2A3/2|F4:|
|:cf|ef ae fd|cA f3/2d/2 cA|B3/2c/2 dg ^fa|ga bg f/2e/2d/2c/2|
ef ae fd|ca fd cA|Bd BG Ec|F2z2:|
|:c2| (3(faf)  (3(cAc)  (3fga| (3gbg  (3ece  (3gab|(3agf  (3cfg  (3afc'|
a2g2c2| (3faf  (3cAc  (3fga| (3bge  (3cef  (3gab|a/2f3/2 d2e2|g2{ag}f2:|

